assets/images/results/6.svg

<svg width="706" height="30" viewBox="0 0 706 30" fill="none" xmlns="http://www.w3.org/2000/svg">
<g opacity="0.1">
<rect width="23" height="30" rx="4" fill="white"/>
</g>
<rect x="27" width="23" height="30" rx="4" fill="#7D9D3B"/>
<path d="M35.574 20C35.574 19.4307 35.6113 18.9313 35.686 18.502C35.7607 18.0633 35.8773 17.676 36.036 17.34C36.204 16.9947 36.4187 16.6913 36.68 16.43C36.9413 16.1687 37.2633 15.9213 37.646 15.688C37.9727 15.5013 38.3087 15.3193 38.654 15.142C39.0087 14.9647 39.3353 14.778 39.634 14.582C39.942 14.386 40.1893 14.162 40.376 13.91C40.572 13.658 40.67 13.35 40.67 12.986C40.67 12.706 40.6093 12.468 40.488 12.272C40.376 12.0667 40.208 11.908 39.984 11.796C39.7693 11.684 39.508 11.628 39.2 11.628C38.8453 11.628 38.514 11.6933 38.206 11.824C37.9073 11.9453 37.6367 12.0993 37.394 12.286C37.1607 12.4633 36.96 12.6407 36.792 12.818L35.616 11.586C35.7467 11.4367 35.924 11.2687 36.148 11.082C36.3813 10.8953 36.6567 10.7133 36.974 10.536C37.3007 10.3587 37.6693 10.214 38.08 10.102C38.4907 9.99 38.9433 9.934 39.438 9.934C40.166 9.934 40.7773 10.0647 41.272 10.326C41.7667 10.578 42.14 10.928 42.392 11.376C42.6533 11.8147 42.784 12.3233 42.784 12.902C42.784 13.322 42.714 13.6953 42.574 14.022C42.4433 14.3393 42.2613 14.6193 42.028 14.862C41.7947 15.1047 41.5333 15.324 41.244 15.52C40.9547 15.7067 40.656 15.8887 40.348 16.066C39.8627 16.3273 39.4707 16.556 39.172 16.752C38.8733 16.948 38.6353 17.13 38.458 17.298C38.29 17.466 38.1593 17.634 38.066 17.802C37.982 17.9607 37.9073 18.1287 37.842 18.306H42.798V20H35.574Z" fill="white"/>
<path d="M54 4C54 1.79086 55.7909 0 58 0H73.2692C75.4784 0 77.2692 1.79086 77.2692 4V26C77.2692 28.2091 75.4784 30 73.2692 30H58C55.7909 30 54 28.2091 54 26V4Z" fill="white" fill-opacity="0.1"/>
<path d="M54 4C54 1.79086 55.7909 0 58 0H73.2692C75.4784 0 77.2692 1.79086 77.2692 4V26C77.2692 28.2091 75.4784 30 73.2692 30H58C55.7909 30 54 28.2091 54 26V4Z" fill="url(#paint0_linear_13_269)"/>
<path d="M81.2692 4C81.2692 1.79086 83.0601 0 85.2692 0H100.538C102.748 0 104.538 1.79086 104.538 4V26C104.538 28.2091 102.748 30 100.538 30H85.2692C83.0601 30 81.2692 28.2091 81.2692 26V4Z" fill="white" fill-opacity="0.1"/>
<path d="M81.2692 4C81.2692 1.79086 83.0601 0 85.2692 0H100.538C102.748 0 104.538 1.79086 104.538 4V26C104.538 28.2091 102.748 30 100.538 30H85.2692C83.0601 30 81.2692 28.2091 81.2692 26V4Z" fill="url(#paint1_linear_13_269)"/>
<path d="M108.538 4C108.538 1.79086 110.329 0 112.538 0H127.808C130.017 0 131.808 1.79086 131.808 4V26C131.808 28.2091 130.017 30 127.808 30H112.538C110.329 30 108.538 28.2091 108.538 26V4Z" fill="white" fill-opacity="0.1"/>
<path d="M108.538 4C108.538 1.79086 110.329 0 112.538 0H127.808C130.017 0 131.808 1.79086 131.808 4V26C131.808 28.2091 130.017 30 127.808 30H112.538C110.329 30 108.538 28.2091 108.538 26V4Z" fill="url(#paint2_linear_13_269)"/>
<path d="M135.808 4C135.808 1.79086 137.599 0 139.808 0H155.077C157.286 0 159.077 1.79086 159.077 4V26C159.077 28.2091 157.286 30 155.077 30H139.808C137.599 30 135.808 28.2091 135.808 26V4Z" fill="white" fill-opacity="0.1"/>
<path d="M135.808 4C135.808 1.79086 137.599 0 139.808 0H155.077C157.286 0 159.077 1.79086 159.077 4V26C159.077 28.2091 157.286 30 155.077 30H139.808C137.599 30 135.808 28.2091 135.808 26V4Z" fill="url(#paint3_linear_13_269)"/>
<path d="M163.077 4C163.077 1.79086 164.868 0 167.077 0H182.346C184.555 0 186.346 1.79086 186.346 4V26C186.346 28.2091 184.555 30 182.346 30H167.077C164.868 30 163.077 28.2091 163.077 26V4Z" fill="white" fill-opacity="0.1"/>
<path d="M163.077 4C163.077 1.79086 164.868 0 167.077 0H182.346C184.555 0 186.346 1.79086 186.346 4V26C186.346 28.2091 184.555 30 182.346 30H167.077C164.868 30 163.077 28.2091 163.077 26V4Z" fill="url(#paint4_linear_13_269)"/>
<path d="M190.346 4C190.346 1.79086 192.137 0 194.346 0H209.615C211.825 0 213.615 1.79086 213.615 4V26C213.615 28.2091 211.825 30 209.615 30H194.346C192.137 30 190.346 28.2091 190.346 26V4Z" fill="white" fill-opacity="0.1"/>
<path d="M190.346 4C190.346 1.79086 192.137 0 194.346 0H209.615C211.825 0 213.615 1.79086 213.615 4V26C213.615 28.2091 211.825 30 209.615 30H194.346C192.137 30 190.346 28.2091 190.346 26V4Z" fill="url(#paint5_linear_13_269)"/>
<path d="M217.615 4C217.615 1.79086 219.406 0 221.615 0H236.885C239.094 0 240.885 1.79086 240.885 4V26C240.885 28.2091 239.094 30 236.885 30H221.615C219.406 30 217.615 28.2091 217.615 26V4Z" fill="white" fill-opacity="0.1"/>
<path d="M217.615 4C217.615 1.79086 219.406 0 221.615 0H236.885C239.094 0 240.885 1.79086 240.885 4V26C240.885 28.2091 239.094 30 236.885 30H221.615C219.406 30 217.615 28.2091 217.615 26V4Z" fill="url(#paint6_linear_13_269)"/>
<path d="M244.885 4C244.885 1.79086 246.675 0 248.885 0H264.154C266.363 0 268.154 1.79086 268.154 4V26C268.154 28.2091 266.363 30 264.154 30H248.885C246.675 30 244.885 28.2091 244.885 26V4Z" fill="white" fill-opacity="0.1"/>
<path d="M244.885 4C244.885 1.79086 246.675 0 248.885 0H264.154C266.363 0 268.154 1.79086 268.154 4V26C268.154 28.2091 266.363 30 264.154 30H248.885C246.675 30 244.885 28.2091 244.885 26V4Z" fill="url(#paint7_linear_13_269)"/>
<path d="M272.154 4C272.154 1.79086 273.945 0 276.154 0H291.423C293.632 0 295.423 1.79086 295.423 4V26C295.423 28.2091 293.632 30 291.423 30H276.154C273.945 30 272.154 28.2091 272.154 26V4Z" fill="white" fill-opacity="0.1"/>
<path d="M272.154 4C272.154 1.79086 273.945 0 276.154 0H291.423C293.632 0 295.423 1.79086 295.423 4V26C295.423 28.2091 293.632 30 291.423 30H276.154C273.945 30 272.154 28.2091 272.154 26V4Z" fill="url(#paint8_linear_13_269)"/>
<path d="M299.423 4C299.423 1.79086 301.214 0 303.423 0H318.692C320.901 0 322.692 1.79086 322.692 4V26C322.692 28.2091 320.901 30 318.692 30H303.423C301.214 30 299.423 28.2091 299.423 26V4Z" fill="white" fill-opacity="0.1"/>
<path d="M299.423 4C299.423 1.79086 301.214 0 303.423 0H318.692C320.901 0 322.692 1.79086 322.692 4V26C322.692 28.2091 320.901 30 318.692 30H303.423C301.214 30 299.423 28.2091 299.423 26V4Z" fill="url(#paint9_linear_13_269)"/>
<path d="M326.692 4C326.692 1.79086 328.483 0 330.692 0H345.961C348.171 0 349.961 1.79086 349.961 4V26C349.961 28.2091 348.171 30 345.961 30H330.692C328.483 30 326.692 28.2091 326.692 26V4Z" fill="white" fill-opacity="0.1"/>
<path d="M326.692 4C326.692 1.79086 328.483 0 330.692 0H345.961C348.171 0 349.961 1.79086 349.961 4V26C349.961 28.2091 348.171 30 345.961 30H330.692C328.483 30 326.692 28.2091 326.692 26V4Z" fill="url(#paint10_linear_13_269)"/>
<path d="M353.961 4C353.961 1.79086 355.752 0 357.961 0H373.231C375.44 0 377.231 1.79086 377.231 4V26C377.231 28.2091 375.44 30 373.231 30H357.961C355.752 30 353.961 28.2091 353.961 26V4Z" fill="white" fill-opacity="0.1"/>
<path d="M353.961 4C353.961 1.79086 355.752 0 357.961 0H373.231C375.44 0 377.231 1.79086 377.231 4V26C377.231 28.2091 375.44 30 373.231 30H357.961C355.752 30 353.961 28.2091 353.961 26V4Z" fill="url(#paint11_linear_13_269)"/>
<path d="M381.231 4C381.231 1.79086 383.022 0 385.231 0H400.5C402.709 0 404.5 1.79086 404.5 4V26C404.5 28.2091 402.709 30 400.5 30H385.231C383.022 30 381.231 28.2091 381.231 26V4Z" fill="white" fill-opacity="0.1"/>
<path d="M381.231 4C381.231 1.79086 383.022 0 385.231 0H400.5C402.709 0 404.5 1.79086 404.5 4V26C404.5 28.2091 402.709 30 400.5 30H385.231C383.022 30 381.231 28.2091 381.231 26V4Z" fill="url(#paint12_linear_13_269)"/>
<rect x="408.5" width="23" height="30" rx="4" fill="#38BCE2"/>
<path d="M414.308 20.098C413.776 20.098 413.291 20.0327 412.852 19.902C412.423 19.762 412.045 19.566 411.718 19.314C411.401 19.0527 411.149 18.7447 410.962 18.39L411.97 17.116C412.063 17.3213 412.213 17.522 412.418 17.718C412.623 17.914 412.88 18.0727 413.188 18.194C413.496 18.3153 413.846 18.376 414.238 18.376C414.621 18.376 414.952 18.32 415.232 18.208C415.512 18.096 415.727 17.942 415.876 17.746C416.035 17.5407 416.114 17.2933 416.114 17.004C416.114 16.696 416.016 16.4347 415.82 16.22C415.633 16.0053 415.353 15.842 414.98 15.73C414.607 15.618 414.149 15.562 413.608 15.562H413.146V14.162H413.636C414.308 14.162 414.845 14.0453 415.246 13.812C415.657 13.5787 415.862 13.2473 415.862 12.818C415.862 12.5567 415.792 12.3327 415.652 12.146C415.512 11.95 415.325 11.8053 415.092 11.712C414.859 11.6093 414.602 11.558 414.322 11.558C413.855 11.558 413.44 11.67 413.076 11.894C412.721 12.1087 412.451 12.3887 412.264 12.734L411.046 11.376C411.251 11.0773 411.531 10.8253 411.886 10.62C412.241 10.4053 412.637 10.2373 413.076 10.116C413.524 9.99467 413.986 9.934 414.462 9.934C415.125 9.934 415.713 10.0507 416.226 10.284C416.739 10.508 417.141 10.816 417.43 11.208C417.719 11.6 417.864 12.048 417.864 12.552C417.864 12.9253 417.785 13.266 417.626 13.574C417.477 13.882 417.262 14.1387 416.982 14.344C416.702 14.5493 416.371 14.6987 415.988 14.792C416.399 14.8573 416.758 15.0113 417.066 15.254C417.383 15.4873 417.626 15.786 417.794 16.15C417.971 16.5047 418.06 16.892 418.06 17.312C418.06 17.9 417.892 18.3993 417.556 18.81C417.229 19.2207 416.781 19.538 416.212 19.762C415.652 19.986 415.017 20.098 414.308 20.098ZM423.589 20.14C422.889 20.1307 422.269 19.972 421.727 19.664C421.186 19.356 420.733 18.95 420.369 18.446C420.005 17.942 419.73 17.4007 419.543 16.822C419.366 16.234 419.277 15.66 419.277 15.1C419.277 14.5027 419.375 13.9053 419.571 13.308C419.767 12.7107 420.052 12.1693 420.425 11.684C420.808 11.1893 421.265 10.7973 421.797 10.508C422.329 10.2093 422.927 10.06 423.589 10.06C424.308 10.06 424.933 10.2187 425.465 10.536C426.007 10.8533 426.459 11.264 426.823 11.768C427.187 12.272 427.458 12.818 427.635 13.406C427.822 13.994 427.915 14.5587 427.915 15.1C427.915 15.7067 427.817 16.3087 427.621 16.906C427.425 17.494 427.136 18.0307 426.753 18.516C426.38 19.0013 425.927 19.3933 425.395 19.692C424.863 19.9813 424.261 20.1307 423.589 20.14ZM421.223 15.1C421.233 15.492 421.284 15.884 421.377 16.276C421.48 16.6587 421.625 17.0133 421.811 17.34C422.007 17.6667 422.255 17.9327 422.553 18.138C422.852 18.334 423.197 18.432 423.589 18.432C424.009 18.432 424.369 18.3247 424.667 18.11C424.966 17.8953 425.209 17.62 425.395 17.284C425.591 16.948 425.736 16.5887 425.829 16.206C425.923 15.8233 425.969 15.4547 425.969 15.1C425.969 14.708 425.918 14.3207 425.815 13.938C425.722 13.546 425.573 13.1867 425.367 12.86C425.171 12.5333 424.924 12.272 424.625 12.076C424.336 11.8707 423.991 11.768 423.589 11.768C423.179 11.768 422.824 11.8753 422.525 12.09C422.227 12.3047 421.979 12.58 421.783 12.916C421.597 13.252 421.457 13.6113 421.363 13.994C421.27 14.3767 421.223 14.7453 421.223 15.1Z" fill="white"/>
<g opacity="0.1">
<rect x="435.5" width="23" height="30" rx="4" fill="white"/>
</g>
<g opacity="0.1">
<rect x="462.5" width="23" height="30" rx="4" fill="white"/>
</g>
<g opacity="0.1">
<rect x="489.5" width="23" height="30" rx="4" fill="white"/>
</g>
<g opacity="0.1">
<rect x="516.5" width="24" height="30" rx="4" fill="white"/>
</g>
<g opacity="0.1">
<rect x="544.5" width="23" height="30" rx="4" fill="white"/>
</g>
<g opacity="0.1">
<rect x="571.5" width="24" height="30" rx="4" fill="white"/>
</g>
<g opacity="0.1">
<rect x="599.5" width="23" height="30" rx="4" fill="white"/>
</g>
<g opacity="0.1">
<rect x="626.5" width="24" height="30" rx="4" fill="white"/>
</g>
<g opacity="0.1">
<rect x="654.5" width="23" height="30" rx="4" fill="white"/>
</g>
<g opacity="0.1">
<rect x="681.5" width="24" height="30" rx="4" fill="white"/>
</g>
<defs>
<linearGradient id="paint0_linear_13_269" x1="54" y1="15" x2="404.5" y2="15" gradientUnits="userSpaceOnUse">
<stop stop-color="#7D9D3B"/>
<stop offset="1" stop-color="#38BCE2"/>
</linearGradient>
<linearGradient id="paint1_linear_13_269" x1="54" y1="15" x2="404.5" y2="15" gradientUnits="userSpaceOnUse">
<stop stop-color="#7D9D3B"/>
<stop offset="1" stop-color="#38BCE2"/>
</linearGradient>
<linearGradient id="paint2_linear_13_269" x1="54" y1="15" x2="404.5" y2="15" gradientUnits="userSpaceOnUse">
<stop stop-color="#7D9D3B"/>
<stop offset="1" stop-color="#38BCE2"/>
</linearGradient>
<linearGradient id="paint3_linear_13_269" x1="54" y1="15" x2="404.5" y2="15" gradientUnits="userSpaceOnUse">
<stop stop-color="#7D9D3B"/>
<stop offset="1" stop-color="#38BCE2"/>
</linearGradient>
<linearGradient id="paint4_linear_13_269" x1="54" y1="15" x2="404.5" y2="15" gradientUnits="userSpaceOnUse">
<stop stop-color="#7D9D3B"/>
<stop offset="1" stop-color="#38BCE2"/>
</linearGradient>
<linearGradient id="paint5_linear_13_269" x1="54" y1="15" x2="404.5" y2="15" gradientUnits="userSpaceOnUse">
<stop stop-color="#7D9D3B"/>
<stop offset="1" stop-color="#38BCE2"/>
</linearGradient>
<linearGradient id="paint6_linear_13_269" x1="54" y1="15" x2="404.5" y2="15" gradientUnits="userSpaceOnUse">
<stop stop-color="#7D9D3B"/>
<stop offset="1" stop-color="#38BCE2"/>
</linearGradient>
<linearGradient id="paint7_linear_13_269" x1="54" y1="15" x2="404.5" y2="15" gradientUnits="userSpaceOnUse">
<stop stop-color="#7D9D3B"/>
<stop offset="1" stop-color="#38BCE2"/>
</linearGradient>
<linearGradient id="paint8_linear_13_269" x1="54" y1="15" x2="404.5" y2="15" gradientUnits="userSpaceOnUse">
<stop stop-color="#7D9D3B"/>
<stop offset="1" stop-color="#38BCE2"/>
</linearGradient>
<linearGradient id="paint9_linear_13_269" x1="54" y1="15" x2="404.5" y2="15" gradientUnits="userSpaceOnUse">
<stop stop-color="#7D9D3B"/>
<stop offset="1" stop-color="#38BCE2"/>
</linearGradient>
<linearGradient id="paint10_linear_13_269" x1="54" y1="15" x2="404.5" y2="15" gradientUnits="userSpaceOnUse">
<stop stop-color="#7D9D3B"/>
<stop offset="1" stop-color="#38BCE2"/>
</linearGradient>
<linearGradient id="paint11_linear_13_269" x1="54" y1="15" x2="404.5" y2="15" gradientUnits="userSpaceOnUse">
<stop stop-color="#7D9D3B"/>
<stop offset="1" stop-color="#38BCE2"/>
</linearGradient>
<linearGradient id="paint12_linear_13_269" x1="54" y1="15" x2="404.5" y2="15" gradientUnits="userSpaceOnUse">
<stop stop-color="#7D9D3B"/>
<stop offset="1" stop-color="#38BCE2"/>
</linearGradient>
</defs>
</svg>

<svg xmlns="http://www.w3.org/2000/svg" width="706" height="30" fill="none" viewBox="0 0 706 30"><rect width="23" height="30" fill="#fff" opacity="0.1" rx="4"/><rect width="23" height="30" x="27" fill="#7D9D3B" rx="4"/><path fill="#fff" d="M35.574 20q0-.855.112-1.498.112-.658.35-1.162.252-.518.644-.91a5.2 5.2 0 0 1 .966-.742q.49-.28 1.008-.546.532-.266.98-.56.462-.294.742-.672.294-.378.294-.924 0-.42-.182-.714a1.13 1.13 0 0 0-.504-.476 1.7 1.7 0 0 0-.784-.168q-.532 0-.994.196-.449.181-.812.462a5 5 0 0 0-.602.532l-1.176-1.232q.195-.224.532-.504a6 6 0 0 1 .826-.546 5.2 5.2 0 0 1 1.106-.434q.615-.168 1.358-.168 1.093 0 1.834.392a2.6 2.6 0 0 1 1.12 1.05q.392.658.392 1.526 0 .63-.21 1.12-.196.476-.546.84a5 5 0 0 1-.784.658q-.434.28-.896.546-.728.392-1.176.686a5 5 0 0 0-.714.546 2.3 2.3 0 0 0-.392.504 4 4 0 0 0-.224.504h4.956V20z"/><path fill="#fff" fill-opacity="0.1" d="M54 4a4 4 0 0 1 4-4h15.27a4 4 0 0 1 4 4v22a4 4 0 0 1-4 4H58a4 4 0 0 1-4-4z"/><path fill="url(#a)" d="M54 4a4 4 0 0 1 4-4h15.27a4 4 0 0 1 4 4v22a4 4 0 0 1-4 4H58a4 4 0 0 1-4-4z"/><path fill="#fff" fill-opacity="0.1" d="M81.27 4a4 4 0 0 1 4-4h15.268a4 4 0 0 1 4 4v22a4 4 0 0 1-4 4H85.269a4 4 0 0 1-4-4z"/><path fill="url(#b)" d="M81.27 4a4 4 0 0 1 4-4h15.268a4 4 0 0 1 4 4v22a4 4 0 0 1-4 4H85.269a4 4 0 0 1-4-4z"/><path fill="#fff" fill-opacity="0.1" d="M108.538 4a4 4 0 0 1 4-4h15.27a4 4 0 0 1 4 4v22a4 4 0 0 1-4 4h-15.27a4 4 0 0 1-4-4z"/><path fill="url(#c)" d="M108.538 4a4 4 0 0 1 4-4h15.27a4 4 0 0 1 4 4v22a4 4 0 0 1-4 4h-15.27a4 4 0 0 1-4-4z"/><path fill="#fff" fill-opacity="0.1" d="M135.808 4a4 4 0 0 1 4-4h15.269a4 4 0 0 1 4 4v22a4 4 0 0 1-4 4h-15.269a4 4 0 0 1-4-4z"/><path fill="url(#d)" d="M135.808 4a4 4 0 0 1 4-4h15.269a4 4 0 0 1 4 4v22a4 4 0 0 1-4 4h-15.269a4 4 0 0 1-4-4z"/><path fill="#fff" fill-opacity="0.1" d="M163.077 4a4 4 0 0 1 4-4h15.269a4 4 0 0 1 4 4v22a4 4 0 0 1-4 4h-15.269a4 4 0 0 1-4-4z"/><path fill="url(#e)" d="M163.077 4a4 4 0 0 1 4-4h15.269a4 4 0 0 1 4 4v22a4 4 0 0 1-4 4h-15.269a4 4 0 0 1-4-4z"/><path fill="#fff" fill-opacity="0.1" d="M190.346 4a4 4 0 0 1 4-4h15.269a4 4 0 0 1 4 4v22a4 4 0 0 1-4 4h-15.269a4 4 0 0 1-4-4z"/><path fill="url(#f)" d="M190.346 4a4 4 0 0 1 4-4h15.269a4 4 0 0 1 4 4v22a4 4 0 0 1-4 4h-15.269a4 4 0 0 1-4-4z"/><path fill="#fff" fill-opacity="0.1" d="M217.615 4a4 4 0 0 1 4-4h15.27a4 4 0 0 1 4 4v22a4 4 0 0 1-4 4h-15.27a4 4 0 0 1-4-4z"/><path fill="url(#g)" d="M217.615 4a4 4 0 0 1 4-4h15.27a4 4 0 0 1 4 4v22a4 4 0 0 1-4 4h-15.27a4 4 0 0 1-4-4z"/><path fill="#fff" fill-opacity="0.1" d="M244.885 4a4 4 0 0 1 4-4h15.269a4 4 0 0 1 4 4v22a4 4 0 0 1-4 4h-15.269a4 4 0 0 1-4-4z"/><path fill="url(#h)" d="M244.885 4a4 4 0 0 1 4-4h15.269a4 4 0 0 1 4 4v22a4 4 0 0 1-4 4h-15.269a4 4 0 0 1-4-4z"/><path fill="#fff" fill-opacity="0.1" d="M272.154 4a4 4 0 0 1 4-4h15.269a4 4 0 0 1 4 4v22a4 4 0 0 1-4 4h-15.269a4 4 0 0 1-4-4z"/><path fill="url(#i)" d="M272.154 4a4 4 0 0 1 4-4h15.269a4 4 0 0 1 4 4v22a4 4 0 0 1-4 4h-15.269a4 4 0 0 1-4-4z"/><path fill="#fff" fill-opacity="0.1" d="M299.423 4a4 4 0 0 1 4-4h15.269a4 4 0 0 1 4 4v22a4 4 0 0 1-4 4h-15.269a4 4 0 0 1-4-4z"/><path fill="url(#j)" d="M299.423 4a4 4 0 0 1 4-4h15.269a4 4 0 0 1 4 4v22a4 4 0 0 1-4 4h-15.269a4 4 0 0 1-4-4z"/><path fill="#fff" fill-opacity="0.1" d="M326.692 4a4 4 0 0 1 4-4h15.269a4 4 0 0 1 4 4v22a4 4 0 0 1-4 4h-15.269a4 4 0 0 1-4-4z"/><path fill="url(#k)" d="M326.692 4a4 4 0 0 1 4-4h15.269a4 4 0 0 1 4 4v22a4 4 0 0 1-4 4h-15.269a4 4 0 0 1-4-4z"/><path fill="#fff" fill-opacity="0.1" d="M353.961 4a4 4 0 0 1 4-4h15.27a4 4 0 0 1 4 4v22a4 4 0 0 1-4 4h-15.27a4 4 0 0 1-4-4z"/><path fill="url(#l)" d="M353.961 4a4 4 0 0 1 4-4h15.27a4 4 0 0 1 4 4v22a4 4 0 0 1-4 4h-15.27a4 4 0 0 1-4-4z"/><path fill="#fff" fill-opacity="0.1" d="M381.231 4a4 4 0 0 1 4-4H400.5a4 4 0 0 1 4 4v22a4 4 0 0 1-4 4h-15.269a4 4 0 0 1-4-4z"/><path fill="url(#m)" d="M381.231 4a4 4 0 0 1 4-4H400.5a4 4 0 0 1 4 4v22a4 4 0 0 1-4 4h-15.269a4 4 0 0 1-4-4z"/><rect width="23" height="30" x="408.5" fill="#38BCE2" rx="4"/><path fill="#fff" d="M414.308 20.098a5 5 0 0 1-1.456-.196 3.7 3.7 0 0 1-1.134-.588 3 3 0 0 1-.756-.924l1.008-1.274q.14.308.448.602t.77.476 1.05.182q.574 0 .994-.168a1.47 1.47 0 0 0 .644-.462q.238-.308.238-.742 0-.462-.294-.784-.28-.322-.84-.49t-1.372-.168h-.462v-1.4h.49q1.008 0 1.61-.35.616-.35.616-.994 0-.391-.21-.672a1.24 1.24 0 0 0-.56-.434 1.9 1.9 0 0 0-.77-.154q-.7 0-1.246.336a2.2 2.2 0 0 0-.812.84l-1.218-1.358q.308-.448.84-.756a4.7 4.7 0 0 1 1.19-.504q.672-.182 1.386-.182.995 0 1.764.35.77.336 1.204.924t.434 1.344q0 .56-.238 1.022a2.05 2.05 0 0 1-.644.77q-.42.308-.994.448.616.098 1.078.462.476.35.728.896.266.532.266 1.162 0 .882-.504 1.498-.49.616-1.344.952-.84.336-1.904.336m9.281.042q-1.05-.014-1.862-.476a4.25 4.25 0 0 1-1.358-1.218 5.8 5.8 0 0 1-.826-1.624 6 6 0 0 1-.266-1.722q0-.896.294-1.792a5.4 5.4 0 0 1 .854-1.624 4.35 4.35 0 0 1 1.372-1.176 3.6 3.6 0 0 1 1.792-.448q1.078 0 1.876.476.812.476 1.358 1.232t.812 1.638q.28.882.28 1.694a5.8 5.8 0 0 1-.294 1.806 5.3 5.3 0 0 1-.868 1.61 4.4 4.4 0 0 1-1.358 1.176q-.798.435-1.806.448m-2.366-5.04q.015.588.154 1.176.155.574.434 1.064.295.49.742.798.448.294 1.036.294.63 0 1.078-.322a2.5 2.5 0 0 0 .728-.826q.294-.504.434-1.078a4.45 4.45 0 0 0-.014-2.268 3.5 3.5 0 0 0-.448-1.078 2.4 2.4 0 0 0-.742-.784q-.433-.308-1.036-.308-.615 0-1.064.322-.447.322-.742.826a4.4 4.4 0 0 0-.42 1.078q-.14.574-.14 1.106"/><rect width="23" height="30" x="435.5" fill="#fff" opacity="0.1" rx="4"/><rect width="23" height="30" x="462.5" fill="#fff" opacity="0.1" rx="4"/><rect width="23" height="30" x="489.5" fill="#fff" opacity="0.1" rx="4"/><rect width="24" height="30" x="516.5" fill="#fff" opacity="0.1" rx="4"/><rect width="23" height="30" x="544.5" fill="#fff" opacity="0.1" rx="4"/><rect width="24" height="30" x="571.5" fill="#fff" opacity="0.1" rx="4"/><rect width="23" height="30" x="599.5" fill="#fff" opacity="0.1" rx="4"/><rect width="24" height="30" x="626.5" fill="#fff" opacity="0.1" rx="4"/><rect width="23" height="30" x="654.5" fill="#fff" opacity="0.1" rx="4"/><rect width="24" height="30" x="681.5" fill="#fff" opacity="0.1" rx="4"/><defs><linearGradient id="a" x1="54" x2="404.5" y1="15" y2="15" gradientUnits="userSpaceOnUse"><stop stop-color="#7D9D3B"/><stop offset="1" stop-color="#38BCE2"/></linearGradient><linearGradient id="b" x1="54" x2="404.5" y1="15" y2="15" gradientUnits="userSpaceOnUse"><stop stop-color="#7D9D3B"/><stop offset="1" stop-color="#38BCE2"/></linearGradient><linearGradient id="c" x1="54" x2="404.5" y1="15" y2="15" gradientUnits="userSpaceOnUse"><stop stop-color="#7D9D3B"/><stop offset="1" stop-color="#38BCE2"/></linearGradient><linearGradient id="d" x1="54" x2="404.5" y1="15" y2="15" gradientUnits="userSpaceOnUse"><stop stop-color="#7D9D3B"/><stop offset="1" stop-color="#38BCE2"/></linearGradient><linearGradient id="e" x1="54" x2="404.5" y1="15" y2="15" gradientUnits="userSpaceOnUse"><stop stop-color="#7D9D3B"/><stop offset="1" stop-color="#38BCE2"/></linearGradient><linearGradient id="f" x1="54" x2="404.5" y1="15" y2="15" gradientUnits="userSpaceOnUse"><stop stop-color="#7D9D3B"/><stop offset="1" stop-color="#38BCE2"/></linearGradient><linearGradient id="g" x1="54" x2="404.5" y1="15" y2="15" gradientUnits="userSpaceOnUse"><stop stop-color="#7D9D3B"/><stop offset="1" stop-color="#38BCE2"/></linearGradient><linearGradient id="h" x1="54" x2="404.5" y1="15" y2="15" gradientUnits="userSpaceOnUse"><stop stop-color="#7D9D3B"/><stop offset="1" stop-color="#38BCE2"/></linearGradient><linearGradient id="i" x1="54" x2="404.5" y1="15" y2="15" gradientUnits="userSpaceOnUse"><stop stop-color="#7D9D3B"/><stop offset="1" stop-color="#38BCE2"/></linearGradient><linearGradient id="j" x1="54" x2="404.5" y1="15" y2="15" gradientUnits="userSpaceOnUse"><stop stop-color="#7D9D3B"/><stop offset="1" stop-color="#38BCE2"/></linearGradient><linearGradient id="k" x1="54" x2="404.5" y1="15" y2="15" gradientUnits="userSpaceOnUse"><stop stop-color="#7D9D3B"/><stop offset="1" stop-color="#38BCE2"/></linearGradient><linearGradient id="l" x1="54" x2="404.5" y1="15" y2="15" gradientUnits="userSpaceOnUse"><stop stop-color="#7D9D3B"/><stop offset="1" stop-color="#38BCE2"/></linearGradient><linearGradient id="m" x1="54" x2="404.5" y1="15" y2="15" gradientUnits="userSpaceOnUse"><stop stop-color="#7D9D3B"/><stop offset="1" stop-color="#38BCE2"/></linearGradient></defs></svg>
